!!!SOCIAL_FUNCTION:	game songs
!!!PDT:	1913
!!!OTL: No_104_Moccasin_Game_Song_(b).krn
!!!REG: Great_Lakes
!!!LANG: Non-Tone
!!!LING_GROUP: Algonquin
**kern	**kern
*staff2	*staff1
=1-	=1-
*clefF4	*clefF4
*k[f#c#g#d#]	*k[f#c#g#d#]
*M2/4	*M2/4
12GG#^/	4c#\
12r	.
12GG#/	.
12GG#^/	8.G#\L
12r	.
12GG#/	.
.	16c#\Jk
=2	=2
12GG#^/	2c#\
12r	.
12GG#/	.
12GG#^/	.
12r	.
12GG#/	.
=3	=3
2r	8c#\L
.	8G#\J
.	8G#\L
.	8F#\J
=4	=4
2r	2G#\
=5	=5
2r	8c#\L
.	8F#\J
.	8E\L
.	8E\J
=6	=6
2r	2F#\
=7	=7
2r	8F#\L
.	8E\J
.	8C#/L
.	8C#/J
=8	=8
2r	2E\
=9	=9
2r	8F#\L
.	8E\J
.	8C#/L
.	8C#/J
=10||	=10||
*M3/4	*M3/4
2.r	16C#/LK
.	8.C#/J
.	8.C#/L
.	16C#/Jk
.	8C#/L
.	8C#/J
=11||	=11||
*M2/4	*M2/4
2r	8.C#/L
.	16C#/Jk
.	4C#/
=12||	=12||
*M3/4	*M3/4
2.r	2.C#/
=13||	=13||
*M2/4	*M2/4
2r	4G#\
.	8.F#\L
.	16G#\Jk
=14	=14
2r	2G#\
=15	=15
2r	8c#\L
.	8F#\J
.	8E\L
.	8E\J
=16	=16
2r	2F#\
=17	=17
2r	8F#\L
.	8E\J
.	8C#/L
.	8C#/J
=18	=18
2r	2E\
=19	=19
2r	8F#\L
.	8E\J
.	8C#/L
.	8C#/J
=20||	=20||
*M3/4	*M3/4
2.r	16C#/LK
.	8.C#/J
.	8.C#/L
.	16C#/Jk
.	8C#/L
.	8C#/J
=21||	=21||
*M2/4	*M2/4
2r	8.C#/L
.	16C#/Jk
.	4C#/
=22||	=22||
*M3/4	*M3/4
2.r	2.C#/
==	==
*-	*-
